X:1
T:Singing Today
T:Charles F. Green
T:Singing Today
T:Public Domain
T:Public Domain
C:Charles F. Green
Z:Public Domain
%%score ( 1 2 ) ( 3 4 )
L:1/8
M:none
K:G
V:1 treble 
V:2 treble 
V:3 bass 
V:4 bass 
V:1
 D | D[DG][DA][GB] [GA][DG] | [EA][EG][CE] [B,D]2 [B,D] | [B,D][B,G][B,G][DG] [DA][GB] | %4
w: 1.~There’s|in the sun- shine and love|the air, When Je- sus|we meet by the way; His|
w: 2.~The|ti- ful flow- ers of grace|ly grow, In hearts that|are free from all sin; And|
w: 3.~Our|are il- lumed by the sun-|of God, Our gifts at|His al- tar we lay; Our|
 [FA]3- [FA]2 [DA] | [DB][DB][DB][DB] [DG][DB] | [EA][EG][CE] [B,D]2 [B,D] | %7
w: smile * makes|each blos- som more love- ly|and fair, And so we|
w: Je- * sus|will help us the good seed|to sow, Be- cause are|
w: lives * are|made bright by be- liev- ing|His Word, And so we|
 [CE][EG][EG][DF] [DB][DA] | [DG]3- [DG]2 z ||"^Refrain" [Gd][GB][Ge] [Gd]3 | [GB]G[Gc] [GB]3 | %11
w: are sing- ing to- day. *||||
w: are trust- ing in Him. *||||
w: are sing- ing to- day. *||||
 [EA][EG][CE][B,D] [DG][DA] | [DB][DB][DB] [DA]2 [Fd] | [Gd][GB][Ge] [Gd]3 | [GB]G[Gc] [GB]3 | %15
w: ||||
w: ||||
w: ||||
 [EA][EG][CE][B,D] [DG][EA] | [DB][DB][CA] [B,G]2 |] %17
w: ||
w: ||
w: ||
V:2
 D | D x5 | x6 | x6 | x6 | x6 | x6 | x6 | x6 || x6 | x G x4 | x6 | x6 | x6 | x G x4 | x6 | x5 |] %17
w: joy|in||||||||||||||||
w: beau-|dai-||||||||||||||||
w: souls|light||||||||||||||||
V:3
 [G,B,] | [G,B,][G,B,][G,C][G,D] [G,C][G,B,] | [C,C][C,C][C,G,] [G,,G,]2 [G,,G,] | %3
w: ~|~ ~ ~ ~ ~ ~|~ ~ ~ ~ ~|
 [G,,G,][G,,G,][G,,G,][G,B,] [G,C][G,D] | [D,D]3- [D,D]2 [D,F,] | G,G,G,G, [G,B,]G, | %6
w: ~ ~ ~ ~ ~ ~|~ * ~|~ ~ ~ ~ ~ ~|
 [C,C][C,C][C,G,] [G,,G,]2 [G,,G,] | [C,G,][C,C][C,C][D,C] [D,D][D,C] | [G,,B,]3- [G,,B,]2 z || %9
w: ~ ~ ~ ~ ~|~ ~ Sing- ing to- day,|sing- *|
 [G,B,][G,D][G,C] [G,B,]3 | [G,D][G,B,][G,E] [G,D]3 | [C,C][C,C][C,G,][G,,G,] [B,,G,][D,F,] | %12
w: ing to- day, Sing-|ing glad songs as|we go on our way; We’re|
 G,G,G, [D,F,]2 [D,C] | [G,B,][G,D][G,C] [G,B,]3 | [G,D][G,B,][G,E] [G,D]3 | %15
w: sing- ing to- day, sing-|Sing- ing the prais-|es of Je- sus|
 [C,C][C,C][C,G,][G,,G,] [B,,G,][C,G,] | [D,G,][D,G,][D,F,] [G,,G,]2 |] %17
w: to- day. * * * *||
V:4
 x | x6 | x6 | x6 | x6 | G,G,G,G, G, x | x6 | x6 | x6 || x6 | x6 | x6 | G,G,G, x3 | x6 | x6 | x6 | %16
w: |||||~ ~ ~ ~ ~|||||||ing to- day,||||
 x5 |] %17
w: |

